X:176
T:That's A Plenty
C:Benny Thomasson
N:TablEdited by Jim Nikora
L:1/8
Q:1/4=240
M:4/4
K:F
z6 (3A=B_d |: "Dm"d2 _d2 =d2 _d2 | (3ded _d=d z_d c=B | "Gm"B2 A2 B2 A2 | (3BcB AB zA GF | 
"A7"E2 B2 A4 | E2 B2 A4 |1 E"Dm"_D =DE FE FG | "A7"EA, _DE Aa3 :|2 D"Dm"_D =DE "A7"FD E_D | 
"Dm"D6 _D2 |: "C7"C4 D2 _E2 | E2 C2 D2 E2 | "F"[A4F4] _A2 =A2 | [fA][fc] z6 :| "C7"C4 D2 _E2 | 
E2 C2 D2 E2 | "F"[A4F4] _A2 =A2 | "F7"[fA][fc] z6 | "Bb"[f4d4] "Bbm"[f4_d4] | 
"F"cd c2 "D7"d4 | "G7"cd c_A "C7"GF DC | "F"F4 FE z_E |: "Bb"D2 _E2 =E2 FG | GG F2 E2 F2 | 
"G7"(3Add (3ddd (3ddd (3ddd | d2 _d=d _e2 d2 | "C7"d2 _d2 c4 | "F7"d4 c4 |1 Bd BG Ac AF | 
GA GD FG FE :|2 (3[BD]"Bb"[BD][BD] (3[BD][BD][BD] (3[BD][BD][BD] (3[BD][BD][BD] | 
[B6D6] (3_ed_d | "D"d2 DD D2 (3_ed_d | d2 DD D2 (3_ed_d | d2 A2 _G2 A2 | d6 fe | 
"F"f2 FF F2 fe | f2 FF F2 fe | f2 c2 A2 c2 | [f2A2] FF F2 c2 | "F7"f4 (3fgf e2 | 
_e6 (3ded | c2 (3BcB A2 G2 | F2 E2 _E2 _D2 |: "Bb"D_D =D_E F=E FG | BF Bc dc BF | 
"G7"D_E FD FD A2 | G6 BG | "C7"BG B2 G4 | "F7"F_d zd cB GF | "Bb"(3[BD][BD][BD] (3[BD][BD][BD] (3[BD][BD][BD] (3[BD][BD][BD] | 
|1 [B8D8] :|2 [B8D8] | 


